priv/static/svgs/icons_new/other-rewards.svg

<svg width="32" height="32" viewBox="0 0 32 32" fill="none" xmlns="http://www.w3.org/2000/svg">
<path d="M12.3912 6.701L12.1762 7.15244L12.1786 7.15358L12.3912 6.701ZM15.9116 10.8551L15.925 11.3549C16.1076 11.35 16.273 11.2459 16.3564 11.0834C16.4398 10.9209 16.428 10.7259 16.3255 10.5746L15.9116 10.8551ZM10.631 10.4786L10.8443 10.0264L10.8415 10.0251L10.631 10.4786ZM19.6088 6.701L19.4101 6.2422C19.4057 6.2441 19.4013 6.24606 19.397 6.24809L19.6088 6.701ZM16.0842 10.8551L15.6703 10.5746C15.5678 10.7259 15.556 10.9209 15.6394 11.0834C15.7228 11.2459 15.8882 11.35 16.0708 11.3549L16.0842 10.8551ZM21.3648 10.4786L21.5782 10.9309L21.5905 10.9247L21.3648 10.4786ZM8.32647 18.1157C8.32647 17.8396 8.10261 17.6157 7.82647 17.6157C7.55032 17.6157 7.32647 17.8396 7.32647 18.1157H8.32647ZM24.6693 18.1157C24.6693 17.8396 24.4455 17.6157 24.1693 17.6157C23.8932 17.6157 23.6693 17.8396 23.6693 18.1157H24.6693ZM12.1786 7.15358C12.2447 7.18461 12.3552 7.25886 12.5098 7.39473C12.6589 7.52576 12.8277 7.69505 13.01 7.89351C13.3744 8.29026 13.7719 8.7813 14.1432 9.26494C14.5135 9.74721 14.8525 10.2154 15.0993 10.5635C15.2225 10.7374 15.3225 10.8809 15.3915 10.9808C15.4259 11.0307 15.4527 11.0696 15.4707 11.096C15.4797 11.1092 15.4865 11.1192 15.491 11.1258C15.4933 11.1291 15.495 11.1316 15.4961 11.1333C15.4966 11.1341 15.4971 11.1347 15.4973 11.135C15.4974 11.1352 15.4975 11.1353 15.4976 11.1354C15.4976 11.1355 15.4976 11.1355 15.4976 11.1355C15.4976 11.1355 15.4976 11.1355 15.9116 10.8551C16.3255 10.5746 16.3255 10.5746 16.3255 10.5745C16.3254 10.5745 16.3254 10.5744 16.3253 10.5744C16.3252 10.5742 16.3251 10.574 16.3249 10.5738C16.3246 10.5732 16.3241 10.5725 16.3234 10.5715C16.3221 10.5696 16.3202 10.5668 16.3178 10.5632C16.3128 10.556 16.3056 10.5453 16.2961 10.5315C16.2773 10.5039 16.2496 10.4636 16.2141 10.4123C16.1432 10.3096 16.041 10.1628 15.9151 9.98525C15.6636 9.6305 15.3168 9.1514 14.9364 8.65598C14.5571 8.16191 14.1393 7.64484 13.7465 7.2171C13.5502 7.00331 13.355 6.80626 13.1699 6.6436C12.9904 6.48579 12.7966 6.33901 12.6037 6.24842L12.1786 7.15358ZM15.9116 10.8551C15.8981 10.3552 15.8981 10.3552 15.8981 10.3552C15.8981 10.3552 15.8981 10.3552 15.898 10.3552C15.8979 10.3552 15.8978 10.3552 15.8976 10.3553C15.8971 10.3553 15.8965 10.3553 15.8955 10.3553C15.8936 10.3554 15.8908 10.3554 15.8869 10.3555C15.8792 10.3557 15.8676 10.356 15.8523 10.3564C15.8217 10.3571 15.7763 10.358 15.7182 10.3591C15.6018 10.3612 15.4339 10.3637 15.2291 10.3652C14.819 10.3683 14.2626 10.3672 13.6751 10.351C13.0861 10.3348 12.4733 10.3035 11.9482 10.2473C11.4001 10.1885 11.0189 10.1087 10.8443 10.0264L10.4176 10.9308C10.7631 11.0937 11.302 11.1837 11.8416 11.2416C12.4041 11.3019 13.0464 11.3341 13.6476 11.3506C14.2502 11.3672 14.8189 11.3683 15.2364 11.3652C15.4454 11.3637 15.6169 11.3611 15.7365 11.3589C15.7963 11.3578 15.8431 11.3568 15.8751 11.3561C15.8911 11.3557 15.9035 11.3554 15.9119 11.3552C15.916 11.3551 15.9193 11.355 15.9215 11.355C15.9226 11.3549 15.9234 11.3549 15.924 11.3549C15.9243 11.3549 15.9245 11.3549 15.9247 11.3549C15.9248 11.3549 15.9249 11.3549 15.9249 11.3549C15.925 11.3549 15.925 11.3549 15.9116 10.8551ZM10.8415 10.0251C10.6532 9.93762 10.4838 9.81361 10.3431 9.66002L9.60574 10.3356C9.83543 10.5862 10.1123 10.789 10.4204 10.9321L10.8415 10.0251ZM10.3431 9.66002C10.2023 9.50642 10.0931 9.32628 10.0217 9.12989L9.08188 9.47145C9.19808 9.79119 9.37607 10.0849 9.60574 10.3356L10.3431 9.66002ZM10.0217 9.12989C9.95037 8.93351 9.91831 8.72481 9.92744 8.51584L8.92839 8.47217C8.91354 8.81212 8.96568 9.15171 9.08188 9.47145L10.0217 9.12989ZM9.92744 8.51584C9.93657 8.30687 9.98672 8.10184 10.0749 7.91254L9.16849 7.49018C9.02483 7.79851 8.94325 8.13222 8.92839 8.47217L9.92744 8.51584ZM10.0749 7.91254C10.1631 7.72324 10.2876 7.55347 10.4411 7.41291L9.76585 6.67536C9.51513 6.90491 9.31216 7.18185 9.16849 7.49018L10.0749 7.91254ZM10.4411 7.41291C10.5947 7.27235 10.7742 7.16376 10.9694 7.09326L10.6296 6.15274C10.3101 6.26815 10.0166 6.4458 9.76585 6.67536L10.4411 7.41291ZM10.9694 7.09326C11.1645 7.02277 11.3716 6.99173 11.5786 7.00188L11.6276 6.00308C11.2883 5.98645 10.9492 6.03732 10.6296 6.15274L10.9694 7.09326ZM11.5786 7.00188C11.7857 7.01202 11.9888 7.06316 12.1762 7.15243L12.6061 6.24957C12.2994 6.10349 11.9668 6.0197 11.6276 6.00308L11.5786 7.00188ZM19.397 6.24809C19.2035 6.33859 19.0092 6.48532 18.8291 6.64321C18.6436 6.8059 18.448 7.00299 18.2513 7.21681C17.8578 7.64461 17.4396 8.16174 17.06 8.65584C16.6793 9.1513 16.3323 9.63043 16.0808 9.9852C15.9549 10.1628 15.8526 10.3096 15.7817 10.4122C15.7462 10.4636 15.7185 10.5039 15.6997 10.5315C15.6902 10.5453 15.683 10.556 15.678 10.5632C15.6756 10.5668 15.6737 10.5696 15.6724 10.5715C15.6717 10.5725 15.6712 10.5732 15.6709 10.5737C15.6707 10.574 15.6705 10.5742 15.6704 10.5744C15.6704 10.5744 15.6704 10.5745 15.6703 10.5745C15.6703 10.5746 15.6703 10.5746 16.0842 10.8551C16.4982 11.1355 16.4982 11.1355 16.4982 11.1355C16.4982 11.1355 16.4982 11.1355 16.4982 11.1354C16.4983 11.1353 16.4984 11.1352 16.4985 11.135C16.4987 11.1347 16.4991 11.1341 16.4997 11.1333C16.5008 11.1316 16.5025 11.1292 16.5047 11.1258C16.5093 11.1192 16.5161 11.1092 16.5251 11.096C16.5431 11.0696 16.5698 11.0307 16.6043 10.9808C16.6733 10.881 16.7733 10.7375 16.8966 10.5636C17.1434 10.2155 17.4825 9.74731 17.853 9.26507C18.2245 8.78146 18.6224 8.29048 18.9873 7.89379C19.1698 7.69537 19.339 7.52612 19.4884 7.39512C19.6433 7.25932 19.7541 7.18502 19.8207 7.15391L19.397 6.24809ZM16.0842 10.8551C16.0708 11.3549 16.0708 11.3549 16.0709 11.3549C16.0709 11.3549 16.071 11.3549 16.0711 11.3549C16.0712 11.3549 16.0715 11.3549 16.0718 11.3549C16.0724 11.3549 16.0732 11.3549 16.0743 11.355C16.0765 11.355 16.0797 11.3551 16.0839 11.3552C16.0923 11.3554 16.1046 11.3557 16.1207 11.3561C16.1527 11.3568 16.1995 11.3578 16.2593 11.3589C16.3789 11.3611 16.5504 11.3637 16.7594 11.3652C17.1769 11.3683 17.7456 11.3672 18.3482 11.3506C18.9494 11.3341 19.5917 11.3019 20.1542 11.2416C20.6937 11.1837 21.2327 11.0937 21.5781 10.9308L21.1515 10.0264C20.9769 10.1087 20.5957 10.1885 20.0476 10.2473C19.5225 10.3035 18.9097 10.3348 18.3207 10.351C17.7332 10.3672 17.1768 10.3683 16.7667 10.3652C16.5619 10.3637 16.394 10.3612 16.2776 10.3591C16.2194 10.358 16.1741 10.357 16.1435 10.3563C16.1282 10.356 16.1166 10.3557 16.1089 10.3555C16.105 10.3554 16.1022 10.3554 16.1003 10.3553C16.0993 10.3553 16.0986 10.3553 16.0982 10.3553C16.098 10.3552 16.0978 10.3552 16.0978 10.3552C16.0977 10.3552 16.0977 10.3552 16.0977 10.3552C16.0977 10.3552 16.0977 10.3552 16.0842 10.8551ZM21.5905 10.9247C22.1891 10.6218 22.646 10.097 22.8651 9.46211L21.9198 9.13593C21.7852 9.52597 21.5049 9.84732 21.1391 10.0324L21.5905 10.9247ZM22.8651 9.46211C23.0842 8.82728 23.0484 8.13175 22.7654 7.52284L21.8586 7.94437C22.0324 8.31834 22.0544 8.74583 21.9198 9.13593L22.8651 9.46211ZM22.7654 7.52284C22.4823 6.91387 21.9739 6.43897 21.3473 6.1996L20.9904 7.13377C21.3731 7.27996 21.6848 7.57047 21.8586 7.94437L22.7654 7.52284ZM21.3473 6.1996C20.7206 5.96022 20.0256 5.97552 19.4101 6.2422L19.8076 7.15979C20.1836 6.99691 20.6078 6.98759 20.9904 7.13377L21.3473 6.1996ZM7.32647 18.1157V23.8079H8.32647V18.1157H7.32647ZM7.32647 23.8079C7.32647 24.3886 7.55605 24.9459 7.96546 25.3572L8.67417 24.6517C8.4518 24.4283 8.32647 24.1248 8.32647 23.8079H7.32647ZM7.96546 25.3572C8.37493 25.7685 8.93079 26 9.51086 26V25C9.19748 25 8.89646 24.875 8.67417 24.6517L7.96546 25.3572ZM9.51086 26H22.4849V25H9.51086V26ZM22.4849 26C23.065 26 23.6209 25.7685 24.0303 25.3572L23.3216 24.6517C23.0993 24.875 22.7983 25 22.4849 25V26ZM24.0303 25.3572C24.4397 24.9459 24.6693 24.3886 24.6693 23.8079H23.6693C23.6693 24.1248 23.544 24.4283 23.3216 24.6517L24.0303 25.3572ZM24.6693 23.8079V18.1157H23.6693V23.8079H24.6693ZM15.9116 15.5768H24.6578V14.5768H15.9116V15.5768ZM24.6578 15.5768C25.0145 15.5768 25.3561 15.4344 25.6077 15.1817L24.899 14.4763C24.8346 14.5409 24.7478 14.5768 24.6578 14.5768V15.5768ZM25.6077 15.1817C25.8591 14.9291 26 14.587 26 14.2307H25C25 14.3233 24.9634 14.4115 24.899 14.4763L25.6077 15.1817ZM26 14.2307V11.6926H25V14.2307H26ZM26 11.6926C26 11.3364 25.8591 10.9942 25.6077 10.7417L24.899 11.4471C24.9634 11.5119 25 11.6001 25 11.6926H26ZM25.6077 10.7417C25.3562 10.489 25.0145 10.3466 24.6578 10.3466V11.3466C24.7478 11.3466 24.8346 11.3825 24.899 11.4471L25.6077 10.7417ZM24.6578 10.3466H7.3422V11.3466H24.6578V10.3466ZM7.3422 10.3466C6.98547 10.3466 6.64384 10.489 6.39232 10.7417L7.10103 11.4471C7.1654 11.3825 7.2522 11.3466 7.3422 11.3466V10.3466ZM6.39232 10.7417C6.14086 10.9943 6 11.3364 6 11.6926H7C7 11.6001 7.0366 11.5119 7.10103 11.4471L6.39232 10.7417ZM6 11.6926V14.2307H7V11.6926H6ZM6 14.2307C6 14.587 6.14085 14.9291 6.39232 15.1817L7.10103 14.4763C7.03661 14.4115 7 14.3233 7 14.2307H6ZM6.39232 15.1817C6.64387 15.4344 6.98551 15.5768 7.3422 15.5768V14.5768C7.25216 14.5768 7.16537 14.5409 7.10103 14.4763L6.39232 15.1817ZM7.3422 15.5768H15.9116V14.5768H7.3422V15.5768ZM15.4116 10.9354V25.4365H16.4116V10.9354H15.4116Z" fill="black"/>
</svg>

<svg width="32" height="32" viewBox="0 0 32 32" fill="none" xmlns="http://www.w3.org/2000/svg">
  <symbol id="item" viewBox="0 0 32 32"  fill="none">
    <path d="m12.391 6.701-.215.451.003.002.212-.453Zm3.52 4.154.014.5a.5.5 0 0 0 .4-.78l-.413.28Zm-5.28-.376.213-.453h-.002l-.211.453ZM19.609 6.7l-.199-.459a.431.431 0 0 0-.013.006l.212.453Zm-3.525 4.154-.414-.28a.5.5 0 0 0 .4.78l.014-.5Zm5.28-.376.214.452.012-.006-.225-.446ZM8.327 18.116a.5.5 0 0 0-1 0h1Zm16.343 0a.5.5 0 1 0-1 0h1ZM12.18 7.154c.066.03.176.105.33.24.15.132.319.301.501.5.364.396.762.887 1.133 1.37a43.249 43.249 0 0 1 1.328 1.832l.02.03a.288.288 0 0 1 .005.007l.001.002.415-.28.414-.28-.001-.001s0-.002-.002-.002a.838.838 0 0 1-.005-.009l-.022-.032a44.203 44.203 0 0 0-1.36-1.876 22.065 22.065 0 0 0-1.19-1.438 7.768 7.768 0 0 0-.576-.573 2.54 2.54 0 0 0-.566-.396l-.425.906Zm3.733 3.701-.014-.5h-.012l-.034.001a38.103 38.103 0 0 1-.623.01c-.41.002-.966.001-1.554-.015a22.791 22.791 0 0 1-1.727-.104c-.548-.059-.93-.138-1.104-.22l-.426.904c.345.163.884.253 1.424.31.562.06 1.204.093 1.806.11a46.4 46.4 0 0 0 2.264.004h.012l-.012-.5Zm-5.07-.83a1.577 1.577 0 0 1-.499-.365l-.737.676c.23.25.506.453.814.596l.421-.907Zm-.499-.365a1.587 1.587 0 0 1-.321-.53l-.94.341c.116.32.294.614.524.865l.737-.676Zm-.321-.53a1.595 1.595 0 0 1-.095-.614l-.999-.044c-.014.34.038.68.154 1l.94-.342Zm-.095-.614c.01-.21.06-.414.148-.603l-.907-.423a2.593 2.593 0 0 0-.24.982l1 .044Zm.148-.603c.088-.19.213-.36.366-.5l-.675-.738c-.25.23-.454.507-.598.815l.907.423Zm.366-.5c.154-.14.333-.25.528-.32l-.34-.94c-.319.115-.612.293-.863.522l.675.738Zm.528-.32c.196-.07.403-.101.61-.091l.049-.999a2.568 2.568 0 0 0-.998.15l.34.94Zm.61-.091c.207.01.41.061.597.15l.43-.902a2.568 2.568 0 0 0-.978-.247l-.05.999Zm7.818-.754c-.194.09-.388.237-.568.395-.185.163-.381.36-.578.574a21.96 21.96 0 0 0-1.191 1.439 43.815 43.815 0 0 0-1.36 1.875l-.022.032a.838.838 0 0 1-.006.008l-.001.003.413.281.414.28.002-.002.005-.007.02-.03.08-.115a43.495 43.495 0 0 1 1.248-1.716c.371-.484.77-.975 1.134-1.371.183-.199.352-.368.501-.499.155-.136.266-.21.333-.241l-.424-.906Zm-3.313 4.607-.013.5H16.085a37.715 37.715 0 0 1 .175.004 44.84 44.84 0 0 0 2.09-.008 23.698 23.698 0 0 0 1.805-.11c.54-.057 1.079-.147 1.424-.31l-.427-.905c-.174.083-.555.162-1.103.221-.525.056-1.138.088-1.727.104a45.207 45.207 0 0 1-2.212.004h-.011l-.014.5Zm5.506.07a2.583 2.583 0 0 0 1.275-1.463l-.945-.326c-.135.39-.415.711-.78.896l.45.893Zm1.275-1.463c.22-.635.183-1.33-.1-1.94l-.906.422c.173.374.195.802.06 1.192l.946.326Zm-.1-1.94A2.58 2.58 0 0 0 21.347 6.2l-.357.934c.383.146.695.436.869.81l.906-.421ZM21.347 6.2a2.567 2.567 0 0 0-1.937.042l.398.918c.376-.163.8-.172 1.182-.026l.357-.934ZM7.327 18.116v5.692h1v-5.692h-1Zm0 5.692c0 .58.229 1.138.638 1.55l.71-.706a1.196 1.196 0 0 1-.349-.844h-1Zm.638 1.55c.41.41.966.642 1.546.642v-1a1.18 1.18 0 0 1-.837-.348l-.709.705ZM9.511 26h12.974v-1H9.51v1Zm12.974 0a2.18 2.18 0 0 0 1.545-.643l-.708-.705a1.18 1.18 0 0 1-.837.348v1Zm1.545-.643c.41-.411.64-.968.64-1.55h-1c0 .318-.126.621-.348.845l.708.705Zm.64-1.55v-5.691h-1v5.692h1Zm-8.758-8.23h8.746v-1h-8.746v1Zm8.746 0c.357 0 .698-.143.95-.395l-.709-.706a.34.34 0 0 1-.241.1v1Zm.95-.395c.251-.253.392-.595.392-.951h-1c0 .092-.037.18-.101.245l.709.706ZM26 14.23v-2.538h-1v2.538h1Zm0-2.538c0-.357-.14-.699-.392-.951l-.709.705a.348.348 0 0 1 .101.246h1Zm-.392-.951a1.34 1.34 0 0 0-.95-.395v1a.34.34 0 0 1 .241.1l.709-.705Zm-.95-.395H7.342v1h17.316v-1Zm-17.316 0a1.34 1.34 0 0 0-.95.395l.709.705a.34.34 0 0 1 .241-.1v-1Zm-.95.395a1.348 1.348 0 0 0-.392.95h1c0-.092.037-.18.101-.245l-.709-.705Zm-.392.95v2.539h1v-2.538H6Zm0 2.539c0 .356.14.698.392.95l.709-.705A.348.348 0 0 1 7 14.231H6Zm.392.95c.252.253.594.396.95.396v-1a.34.34 0 0 1-.241-.1l-.709.705Zm.95.396h8.57v-1h-8.57v1Zm8.07-4.642v14.501h1v-14.5h-1Z" fill="currentColor"/>
  </symbol>
</svg>
